svgs/google_voice.svg

<svg width="24" height="24" viewBox="0 0 24 24" fill="none" xmlns="http://www.w3.org/2000/svg">
<path d="M11.5 5V3C17.02 3 21.5 7.48 21.5 13H19.5C19.5 8.59 15.91 5 11.5 5ZM11.5 8.5V6.5C15.09 6.5 18 9.41 18 13H16C16 10.52 13.98 8.5 11.5 8.5Z" fill="#FFF1C0"/>
<path d="M6.74565 17.7528L6.74724 17.7544C9.03721 20.0341 11.9868 21.5 14.5 21.5C15.341 21.5 16.6029 21.3225 17.5413 20.3958L17.8836 20.0536C17.9776 19.9595 18.0303 19.8318 18.03 19.6988C18.0297 19.5658 17.9764 19.4384 17.8819 19.3448L14.6819 16.1748C14.4864 15.9811 14.1711 15.9818 13.9764 16.1764L11.5 18.6529L5.84773 13.0006L8.32293 10.5342C8.51813 10.3397 8.51915 10.0239 8.32521 9.82812L5.15521 6.62812C4.96222 6.4333 4.64831 6.43028 4.45161 6.62136L4.10153 6.96129L4.0942 6.96871C3.17687 7.8978 3 9.16052 3 10C3 12.5132 4.46595 15.4628 6.74565 17.7528Z" fill="#FFF1C0"/>
</svg>

<svg xmlns="http://www.w3.org/2000/svg" width="24" height="24" fill="none" viewBox="0 0 24 24"><path fill="#FFF1C0" d="M11.5 5V3c5.52 0 10 4.48 10 10h-2c0-4.41-3.59-8-8-8m0 3.5v-2A6.5 6.5 0 0 1 18 13h-2c0-2.48-2.02-4.5-4.5-4.5m-4.754 9.253.001.001c2.29 2.28 5.24 3.746 7.753 3.746.841 0 2.103-.177 3.041-1.104l.343-.342a.5.5 0 0 0-.002-.71l-3.2-3.17a.5.5 0 0 0-.706.002L11.5 18.653 5.848 13l2.475-2.467a.5.5 0 0 0 .002-.706l-3.17-3.2a.5.5 0 0 0-.703-.007l-.35.34-.008.008C3.177 7.898 3 9.16 3 10c0 2.513 1.466 5.463 3.746 7.753"/></svg>
